X:1
T:Title
%%score ( 1 2 ) { 3 | 4 }
L:1/8
Q:1/4=100
M:4/4
K:A
V:1 treble nm="Grand Piano, Soprano"
V:2 treble 
V:3 bass nm="Choir Pad, Bass"
V:4 bass 
V:1
 [CE]2 [CA]2 [CA]>[CA] [Ec]2 | [CA][CA] [DF]2 [FA]>[DA] [CE]2- | [CE][Ec] [Ae]2 [Ae][Ae] [Ec]2 | %3
w: By~H.~A.~R.~Horton * * * *|||
 [CA]>[CA] [DB]6 | [CE]2 [CA]2 [CA]>[CA] [Ec]2 | [CA][CA] [DF]2 [FA]>[DA] [CE]2 | %6
w: |||
 [CA]>[Ec] [Ae]2 [Ec][CA] [DF]2 | [CE]>[DG] [CA]6 | z2 c->[Ec-] [Ec]>E [CA]2 | %9
w: |||
 [CF]>[CE] (3[CA-][CA-][CA-] A4 | z2 B4 z2 | [Ee]>[Ee] (3[Ae-][Ae-][Ae-] e>E [Ec]2 | z2 A4 z2 | %13
w: ||||
 [DF]>[DF] (3[CE-][CE-][CE-] E4 | z2 [EA]2- [EA][Ec] [Ae]2 | [Ac]>[EB] [EA]6- | [EA]2 z2 z4 |] %17
w: ||||
V:2
 x8 | x8 | x8 | x8 | x8 | x8 | x8 | x8 | z2 E2 z4 | z4 C>C C2 | z2 D>D D>D [DB]2 | z4 A2 z2 | %12
 z2 F>F F>F [DF]2 | z4 C>C C2 | x8 | x8 | x8 |] %17
V:3
 A,2 E,2 E,>E, A,2 | A,A, A,2 A,>A, A,2- | A,A, C2 CC A,2 | E,>E, G,6 | A,2 E,2 E,>E, A,2 | %5
 A,A, A,2 A,>A, A,2 | E,>A, C2 A,A, A,2 | A,>E, E,6 | z2 A,>A, A,>A, E,2 | %9
 A,>A, (3E,E,E, E,>E, E,2 | z2 G,>G, G,>G, G,2 | C>C (3CCC[K:bass] A,>A, A,2 | %12
 z2[K:treble] D>D D>D A,2 | A,>A, (3A,A,A, A,>A, A,2 | z2[K:treble] C2- CA, C2 | E>D C6- | %16
 C2 z2 z4 |] %17
V:4
 A,,2 A,,2 A,,>A,, A,,2 | A,,A,, D,2 D,>F, z2 | z A,, A,2 A,A, z2 | A,,>A,, E,6 | %4
 A,,2 A,,2 A,,>A,, A,,2 | A,,A,, D,2 D,>F, z2 | A,,>A,, [A,,A,]2 A,,A,, D,2 | E,2 A,,6 | %8
 z2 A,,>A,, A,,>A,, A,,2 | A,,>A,, (3A,,A,,A,, A,,>A,, A,,2 | z2 E,>E, E,>E, E,2 | %11
 [A,,A,]>[A,,A,] (3A,A,A, E,>C, A,,2 | z2 D,>D, D,>D, D,2 | D,>D, (3A,,A,,A,, A,,>A,, A,,2 | %14
 z2 A,4 A,2 | C,>E, A,,6- | A,,2 z2 z4 |] %17

